<?xml version="1.0" encoding="UTF-8"?>
<map version="1.10" tiledversion="1.12.2" orientation="orthogonal" renderorder="right-down" width="18" height="15" tilewidth="48" tileheight="48" infinite="0" nextlayerid="4" nextobjectid="999">
 <tileset firstgid="1" source="meubels.tsx"/>
 <imagelayer id="1" name="shell">
  <image source="shells/thuis_shell.png" width="864" height="720"/>
 </imagelayer>
 <objectgroup id="2" name="kleden">
  <object id="1" gid="24" name="GEN_kleed_rood" x="538" y="376" width="180" height="120">
  </object>
  <object id="2" gid="88" name="KEUKEN_246" x="172" y="398" width="87" height="87">
  </object>
  <object id="3" gid="22" name="GEN_kleed_klein_rood" x="604" y="652" width="87" height="77">
  </object>
 </objectgroup>
 <objectgroup id="3" name="meubels">
  <object id="4" gid="86" name="KEUKEN_160" x="43" y="235" width="48" height="108">
   <properties>
    <property name="boven" type="float" value="0.5"/>
    <property name="solide" type="bool" value="true"/>
   </properties>
  </object>
  <object id="5" gid="82" name="KEUKEN_109" x="96" y="232" width="48" height="33">
   <properties>
    <property name="boven" type="float" value="0.45"/>
    <property name="solide" type="bool" value="true"/>
   </properties>
  </object>
  <object id="6" gid="85" name="KEUKEN_153" x="144" y="235" width="48" height="84">
   <properties>
    <property name="boven" type="float" value="0.5"/>
    <property name="solide" type="bool" value="true"/>
   </properties>
  </object>
  <object id="7" gid="84" name="KEUKEN_143" x="189" y="232" width="72" height="42">
   <properties>
    <property name="boven" type="float" value="0.45"/>
    <property name="solide" type="bool" value="true"/>
   </properties>
  </object>
  <object id="8" gid="83" name="KEUKEN_113" x="259" y="232" width="48" height="33">
   <properties>
    <property name="boven" type="float" value="0.45"/>
    <property name="solide" type="bool" value="true"/>
   </properties>
  </object>
  <object id="9" gid="32" name="GEN_raam_hout" x="296" y="122" width="89" height="72">
   <properties>
    <property name="boven" type="float" value="0.0"/>
    <property name="solide" type="bool" value="false"/>
   </properties>
  </object>
  <object id="10" gid="90" name="KEUKEN_296" x="193" y="364" width="45" height="42">
   <properties>
    <property name="boven" type="float" value="0.3"/>
    <property name="solide" type="bool" value="true"/>
   </properties>
  </object>
  <object id="11" gid="93" name="KEUKEN_384" x="198" y="368" width="36" height="33">
   <properties>
    <property name="boven" type="float" value="0.0"/>
    <property name="solide" type="bool" value="false"/>
   </properties>
  </object>
  <object id="12" gid="92" name="KEUKEN_371" x="138" y="360" width="30" height="63">
   <properties>
    <property name="boven" type="float" value="0.3"/>
    <property name="solide" type="bool" value="true"/>
   </properties>
  </object>
  <object id="13" gid="91" name="KEUKEN_368" x="263" y="360" width="30" height="63">
   <properties>
    <property name="boven" type="float" value="0.3"/>
    <property name="solide" type="bool" value="true"/>
   </properties>
  </object>
  <object id="14" gid="128" name="LR_89" x="481" y="240" width="45" height="93">
   <properties>
    <property name="boven" type="float" value="0.65"/>
    <property name="solide" type="bool" value="true"/>
   </properties>
  </object>
  <object id="15" gid="30" name="GEN_raam_gordijn_beige" x="532" y="128" width="125" height="94">
   <properties>
    <property name="boven" type="float" value="0.0"/>
    <property name="solide" type="bool" value="false"/>
   </properties>
  </object>
  <object id="16" gid="121" name="LR_110" x="648" y="240" width="96" height="120">
   <properties>
    <property name="boven" type="float" value="0.55"/>
    <property name="solide" type="bool" value="true"/>
   </properties>
  </object>
  <object id="17" gid="35" name="GEN_schilderij_vuur" x="764" y="120" width="75" height="39">
   <properties>
    <property name="boven" type="float" value="0.0"/>
    <property name="solide" type="bool" value="false"/>
   </properties>
  </object>
  <object id="18" gid="124" name="LR_37" x="770" y="240" width="81" height="117">
   <properties>
    <property name="boven" type="float" value="0.55"/>
    <property name="solide" type="bool" value="true"/>
   </properties>
  </object>
  <object id="19" gid="123" name="LR_29" x="555" y="331" width="90" height="54">
   <properties>
    <property name="boven" type="float" value="0.35"/>
    <property name="solide" type="bool" value="true"/>
   </properties>
  </object>
  <object id="20" gid="136" name="REC_204" x="699" y="331" width="60" height="72">
   <properties>
    <property name="boven" type="float" value="0.35"/>
    <property name="solide" type="bool" value="true"/>
   </properties>
  </object>
  <object id="21" gid="26" name="GEN_palm" x="790" y="398" width="60" height="69">
   <properties>
    <property name="boven" type="float" value="0.55"/>
    <property name="solide" type="bool" value="true"/>
   </properties>
  </object>
  <object id="22" gid="2" name="BED_224" x="72" y="705" width="96" height="114">
   <properties>
    <property name="boven" type="float" value="0.35"/>
    <property name="solide" type="bool" value="true"/>
   </properties>
  </object>
  <object id="23" gid="125" name="LR_63" x="196" y="696" width="48" height="60">
   <properties>
    <property name="boven" type="float" value="0.4"/>
    <property name="solide" type="bool" value="true"/>
   </properties>
  </object>
  <object id="24" gid="1" name="BED_125" x="242" y="705" width="120" height="123">
   <properties>
    <property name="boven" type="float" value="0.45"/>
    <property name="solide" type="bool" value="true"/>
   </properties>
  </object>
  <object id="25" gid="34" name="GEN_schilderij_landschap" x="490" y="525" width="75" height="39">
   <properties>
    <property name="boven" type="float" value="0.0"/>
    <property name="solide" type="bool" value="false"/>
   </properties>
  </object>
  <object id="26" gid="17" name="GEN_bankje" x="486" y="595" width="83" height="49">
   <properties>
    <property name="boven" type="float" value="0.3"/>
    <property name="solide" type="bool" value="true"/>
   </properties>
  </object>
  <object id="27" gid="126" name="LR_70" x="703" y="568" width="81" height="69">
   <properties>
    <property name="boven" type="float" value="0.45"/>
    <property name="solide" type="bool" value="true"/>
   </properties>
  </object>
  <object id="28" gid="122" name="LR_18" x="787" y="696" width="66" height="90">
   <properties>
    <property name="boven" type="float" value="0.4"/>
    <property name="solide" type="bool" value="true"/>
   </properties>
  </object>
 </objectgroup>
</map>