<?xml version="1.0" encoding="UTF-8"?>
<map version="1.10" tiledversion="1.12.2" orientation="orthogonal" renderorder="right-down" width="18" height="13" tilewidth="48" tileheight="48" infinite="0" nextlayerid="4" nextobjectid="999">
 <tileset firstgid="1" source="meubels.tsx"/>
 <imagelayer id="1" name="shell">
  <image source="shells/sporthal_shell.png" width="864" height="624"/>
 </imagelayer>
 <objectgroup id="2" name="kleden">
 </objectgroup>
 <objectgroup id="3" name="meubels">
  <object id="1" gid="60" name="GYM_131" x="87" y="208" width="84" height="69">
   <properties>
    <property name="boven" type="float" value="0.5"/>
    <property name="solide" type="bool" value="true"/>
   </properties>
  </object>
  <object id="2" gid="60" name="GYM_131" x="174" y="208" width="84" height="69">
   <properties>
    <property name="boven" type="float" value="0.5"/>
    <property name="solide" type="bool" value="true"/>
   </properties>
  </object>
  <object id="3" gid="64" name="GYM_186" x="303" y="240" width="66" height="123">
   <properties>
    <property name="boven" type="float" value="0.35"/>
    <property name="solide" type="bool" value="true"/>
   </properties>
  </object>
  <object id="4" gid="65" name="GYM_187" x="399" y="240" width="66" height="123">
   <properties>
    <property name="boven" type="float" value="0.35"/>
    <property name="solide" type="bool" value="true"/>
   </properties>
  </object>
  <object id="5" gid="66" name="GYM_188" x="501" y="240" width="54" height="96">
   <properties>
    <property name="boven" type="float" value="0.35"/>
    <property name="solide" type="bool" value="true"/>
   </properties>
  </object>
  <object id="6" gid="61" name="GYM_167" x="625" y="237" width="93" height="69">
   <properties>
    <property name="boven" type="float" value="0.4"/>
    <property name="solide" type="bool" value="true"/>
   </properties>
  </object>
  <object id="7" gid="62" name="GYM_169" x="731" y="237" width="93" height="63">
   <properties>
    <property name="boven" type="float" value="0.4"/>
    <property name="solide" type="bool" value="true"/>
   </properties>
  </object>
  <object id="8" gid="73" name="GYM_96" x="93" y="374" width="72" height="108">
   <properties>
    <property name="boven" type="float" value="0.35"/>
    <property name="solide" type="bool" value="true"/>
   </properties>
  </object>
  <object id="9" gid="58" name="GYM_106" x="79" y="441" width="33" height="36">
   <properties>
    <property name="boven" type="float" value="0.3"/>
    <property name="solide" type="bool" value="true"/>
   </properties>
  </object>
  <object id="10" gid="59" name="GYM_107" x="127" y="451" width="33" height="36">
   <properties>
    <property name="boven" type="float" value="0.3"/>
    <property name="solide" type="bool" value="true"/>
   </properties>
  </object>
  <object id="11" gid="70" name="GYM_73" x="162" y="508" width="60" height="60">
   <properties>
    <property name="boven" type="float" value="0.3"/>
    <property name="solide" type="bool" value="true"/>
   </properties>
  </object>
  <object id="12" gid="72" name="GYM_88" x="581" y="434" width="90" height="30">
   <properties>
    <property name="boven" type="float" value="0.0"/>
    <property name="solide" type="bool" value="false"/>
   </properties>
  </object>
  <object id="13" gid="68" name="GYM_198" x="312" y="480" width="48" height="93">
   <properties>
    <property name="boven" type="float" value="0.0"/>
    <property name="solide" type="bool" value="false"/>
   </properties>
  </object>
  <object id="14" gid="67" name="GYM_197" x="432" y="480" width="96" height="45">
   <properties>
    <property name="boven" type="float" value="0.0"/>
    <property name="solide" type="bool" value="false"/>
   </properties>
  </object>
  <object id="15" gid="69" name="GYM_200" x="600" y="480" width="48" height="93">
   <properties>
    <property name="boven" type="float" value="0.0"/>
    <property name="solide" type="bool" value="false"/>
   </properties>
  </object>
  <object id="16" gid="63" name="GYM_178" x="801" y="374" width="39" height="84">
   <properties>
    <property name="boven" type="float" value="0.55"/>
    <property name="solide" type="bool" value="true"/>
   </properties>
  </object>
  <object id="17" gid="71" name="GYM_75" x="776" y="494" width="60" height="60">
   <properties>
    <property name="boven" type="float" value="0.3"/>
    <property name="solide" type="bool" value="true"/>
   </properties>
  </object>
 </objectgroup>
</map>